/* XPM */
static char *_27c79b5685b4e278da359312d145d0afGHRzyHGTLjbvYka[] = {
/* columns rows colors chars-per-pixel */
"32 32 119 2 ",
"   c None",
".  c #442211",
"X  c #492513",
"o  c #4B2916",
"O  c #4C2B19",
"+  c #512D1A",
"@  c #4D311E",
"#  c #55331D",
"$  c #58351E",
"%  c #4F3320",
"&  c #533522",
"*  c #593721",
"=  c #573820",
"-  c #5C3C25",
";  c #5E3E29",
":  c #5D4027",
">  c #5E422A",
",  c #554432",
"<  c #5A4533",
"1  c #5D4936",
"2  c #5E4C3A",
"3  c #62442B",
"4  c #63492D",
"5  c #68492E",
"6  c #604431",
"7  c #664C32",
"8  c #6A4E33",
"9  c #654E39",
"0  c #6D5236",
"q  c #66523C",
"w  c #6C553A",
"e  c #6F5839",
"r  c #70573A",
"t  c #745C3C",
"y  c #785D3C",
"u  c #695741",
"i  c #675947",
"p  c #6B5A45",
"a  c #6B5D4A",
"s  c #765E41",
"d  c #785E41",
"f  c #715F4C",
"g  c #6E604E",
"h  c #7C6345",
"j  c #73624C",
"k  c #7F6849",
"l  c #6E6051",
"z  c #766550",
"x  c #786650",
"c  c #776856",
"v  c #7A6A56",
"b  c #776A5B",
"n  c #7A6C5B",
"m  c #7E7363",
"M  c #7F7769",
"N  c #816749",
"B  c #836A4A",
"V  c #886F4F",
"C  c #89714F",
"Z  c #806D5A",
"A  c #897251",
"S  c #8F7856",
"D  c #83735E",
"F  c #907A56",
"G  c #927C59",
"H  c #837663",
"J  c #817867",
"K  c #897A66",
"L  c #857B6A",
"P  c #8B7D6B",
"I  c #96815D",
"U  c #98835F",
"Y  c #8D816F",
"T  c #978260",
"R  c #988260",
"E  c #998260",
"W  c #988360",
"Q  c #998360",
"!  c #9A8360",
"~  c #9A8460",
"^  c #9C8866",
"/  c #9D8967",
"(  c #90836F",
")  c #9E8968",
"_  c #9E8B69",
"`  c #9E8C69",
"'  c #9E8D6A",
"]  c #8F8576",
"[  c #948673",
"{  c #958774",
"}  c #998A77",
"|  c #978B79",
" . c #958B7C",
".. c #978D7E",
"X. c #988B78",
"o. c #988E7E",
"O. c #9C8F7C",
"+. c #9D907D",
"@. c #9C917E",
"#. c #A08D6B",
"$. c #A5946F",
"%. c #A6946F",
"&. c #A59471",
"*. c #A69471",
"=. c #A69573",
"-. c #A79573",
";. c #9B9182",
":. c #9F9582",
">. c #9D9485",
",. c #A09583",
"<. c #A09684",
"1. c #A09788",
"2. c #A19889",
"3. c #A59B8C",
"4. c #A99F92",
"5. c #ABA193",
"6. c #ABA194",
"7. c #ABA394",
"8. c #ADA494",
/* pixels */
"                                                                ",
"> < 6 6                                                 3 3 3 ; ",
"1.1.2.3 7 8 8 0 0 8 8   7 0 8 0 8 0 0 8   8 8 8 8 8 4 3 ; 7.8.6.",
">.[ { 3 C / / / / ) ) 5 &.%.%.&.&.&.&.&.8 ` ) #.` ` ` ` ; @.O.7.",
";.( ( ; B T T R R R R 5 R R R ~ ~ ~ R R 8 U I I I G G G ; } X.4.",
"o.K K ; k S S F F F F 5 F F F F F F F F 5 F F F F F F S ; P P 3.",
"..H H - N S S S S S S 5 F F F F F F F F 3 S F S S S S S ; P P @.",
" .H H - d A A A V V C 3 A A C C C C C A 3 A A A A A A A - K K | ",
"] H H - t B B B B B B ; B B B B B B B B - B B B B B B B * Z n Y ",
"P j x * t N B N B N N $ N N B B B B N N * B B B N N N N * v v L ",
"K j j = 0 d s s s d s + d - 3 3 3 - = d # d d d d d d d $ j j H ",
"n u p # 8 s s s s s d o d = <.,.,.:.= 4 X d d d d s d d $ f p b ",
"z q q # 4 4 4 4 7 7 7 X 7 = D H H D O 4 X 7 7 7 7 7 7 7 # w w f ",
"O O O # o X X X X X X X X # v + + v O X X X X X X X X X o X X O ",
"w w w + - : : 3 4 4 7 4 8 O j O O j O : : 3 3 3 > : - * X 9 9 9 ",
"w w w O - - : 3 3 4 4 7 7 o p D D p X : : : 3 3 > ; * * X 9 9 9 ",
"m j z O 3 8 0 0 r t t t t X 7 7 7 7 X ; t t t t e 0 7 7 X z z J ",
"m j j X 3 8 0 0 0 t t t t t O O O O ; y t t t t e 0 7 7 X j j J ",
"m j j . 3 7 8 0 0 t t t t t t y y y y t t t t e e 0 7 7 X j j m ",
"m f p . . . X O O $ = : ; : 3 3 3 3 3 > ; * * $ O o . . . a f m ",
"n u u . 7 s h k B A A A A A A A A A A A A A A A B B s s . u p n ",
"b q q . > 7 8 r t t t t t t t t t t t s t t s t r e 7 7 . q q n ",
"a 1 1 . > 7 8 e r t t t t t t t t t t t s s t t r e 7 7 . 1 7 f ",
"O O O . : 7 8 e e t t t t t t t s s s s s s t t e e 7 7 . X O O ",
"P L L L O 7 7 e e t t t t t t t t t t t t t t r e w 7 O L L L L ",
"v c c v J . O O O @ % & & & & & & & & % & @ @ @ O o . M b b v v ",
"a f j j m . b n n m m m J J J J J J J J J m m n b b . m f j j j ",
"p p p p b . i i p i i a a f g g a a a a i i i i i i . b p p p p ",
"1 2 2 2 l . , < < < 1 2 2 2 2 2 2 9 2 2 2 2 2 2 < , . l 2 2 2 2 ",
"X X X X . . . . . . . . . . . . . . . . . . . . . . . . . . . . ",
"                                                                ",
"                                                                "
};
