/* XPM */
static char *result[] = {
/* columns rows colors chars-per-pixel */
"32 32 34 1 ",
"  c #1CB1E0",
". c #1EB2E0",
"X c #1EB3E0",
"o c #1FB5E2",
"O c #1EB6E3",
"+ c #20B8E5",
"@ c #20B9E5",
"# c #21B9E6",
"$ c #22BAE7",
"% c #22BAE8",
"& c #23BBE8",
"* c #23BEE8",
"= c #22BFE8",
"- c #24BCE8",
"; c #25C0E9",
": c #25C1E9",
"> c #26C1E8",
", c #27C3E9",
"< c #27C3EB",
"1 c #26C4EB",
"2 c #27C3EC",
"3 c #27C4ED",
"4 c #28C7ED",
"5 c #29C7EE",
"6 c #29C6EF",
"7 c #29C8EE",
"8 c #29C8EF",
"9 c #2AC7F1",
"0 c #2AC9F0",
"q c #2AC9F1",
"w c #2ACAF1",
"e c #2BCAF1",
"r c #2ACCF1",
"t c None",
/* pixels */
"tttttttttttttttttttttttttttttttt",
"tttttttttttttttttttttttttttttttt",
"tttttttttttttttttttttttttttttttt",
"tttttttttttttttttttttttttttttttt",
"tttttttttttttttttttttttttttttttt",
"tttttttttttttttttttttttttttttttt",
"tttttttttttttttttttttttttttttttt",
"tttttttttttttttttttttttttttttttt",
"tttttttttttttttttttttttttttttttt",
"tttttttttttttttttttttttttttttttt",
"tttttttttttttttttttttttttttttttt",
"ttttttttttttteeetttttttttttttttt",
"tttttttttttwrwwwqqtttttttttttttt",
"tttttttttt000q0q900ttttttttttttt",
"tttttttttt78ttttt66ttttttttttttt",
"ttttttttt445tttttt32tttttttttttt",
"ttttttttt2<ttt2ttt1,tttttttttttt",
"ttttttttt>:ttt;:tt*=tttttttttttt",
"ttttttttt--tttt&&%%ttttttttttttt",
"tttttttttt$#tttttttttttttttttttt",
"tttttttttt+@@ttttttttttttttttttt",
"tttttttttttOootttXtttttttttttttt",
"tttttttttttttX.. ttttttttttttttt",
"tttttttttttttttttttttttttttttttt",
"tttttttttttttttttttttttttttttttt",
"tttttttttttttttttttttttttttttttt",
"tttttttttttttttttttttttttttttttt",
"tttttttttttttttttttttttttttttttt",
"tttttttttttttttttttttttttttttttt",
"tttttttttttttttttttttttttttttttt",
"tttttttttttttttttttttttttttttttt",
"tttttttttttttttttttttttttttttttt"
};
