/* XPM */
static char *b43445b4f93c4d19ecbdce6214a0ca61xkrVDwa29uuOsHA5[] = {
/* columns rows colors chars-per-pixel */
"32 32 7 1 ",
"  c None",
". c #222034",
"X c white",
"o c #CBDBFC",
"O c #3F3F74",
"+ c #D77BBA",
"@ c black",
/* pixels */
"                                ",
"                                ",
"                                ",
"                                ",
"           ..........           ",
"        ...XXXXXXXXXX...        ",
"       .XXXXXXXXXXXXXXoo.       ",
"       .XXXXXXXXXXXXXXXo.       ",
"      .XXXXXXXXXXXXXXXXoo.      ",
"      .XXXXXXXXXXXXXXXXoo.      ",
"     .XXXXXXXXXXXXXXXXXooo.     ",
"     .XXXXXXXXXXXXXXXXXooo.     ",
"     .XXXXX..XXXXXX..XXooo.     ",
"     .XXXXX..XXXXXX..XXooo.     ",
"     .XXXXXOOXXXXXXOOXXooo.     ",
"     .XXXXXOOXXXXXXOOXXooo.     ",
"     .XXX++XXXXXXXXXX++ooo.     ",
"    .oXXXXXXXXX@@XXXXXXoooo.    ",
"    .oXXXXXXXXXXXXXXXXXoooo.    ",
"    .oXXXXXXXXXXXXXXXXooooo.    ",
"   .ooXXXXXXXXXXXXXXXXoooooo.   ",
"  .oooXXXXXXXXXXXXXXXXooooooo.  ",
"  .ooooXXXXXXXXXXXXXXoooooooo.  ",
"  .ooooXOXXXXXXXXXXXOoooooooo.  ",
" .oooooOOXXXXXXXXXXXOooooooooo. ",
" OOooooOoXXXXXXXXXXOOoooooooooO ",
"  OoooOOoooXXXXXXXO OooooooooO  ",
"   O.OOoooooXXXXXXO  Oooooo.O   ",
"     ..oooooooXXoO   Oooo..     ",
"       .....ooooOO   O...       ",
"            .....               ",
"                                "
};
