/* XPM */
static char *_803c3d2d3544c7ac45ad37161cf4d540XOG4LLkvjsqTx0X[] = {
/* columns rows colors chars-per-pixel */
"32 32 8 1 ",
"  c None",
". c #241527",
"X c #341C27",
"o c #602C2C",
"O c #25562E",
"+ c #468232",
"@ c #75A743",
"# c #A8CA58",
/* pixels */
"                                ",
"                                ",
"                                ",
"                 #              ",
"          @@  @ ##@   #         ",
"           @@@@@##@@##          ",
"        ###@@@####@####         ",
"     @@@@###@#########@@@@      ",
"   @@##@@@#############@@       ",
"    @@##@##############@@@      ",
"    @##################@#@##    ",
"  #@@######################@ +  ",
"  ##########################++  ",
"  ###########################+  ",
" ###@#######################+++ ",
"+@@#@@#####################+O+++",
"o+@@@####################+#OOOOX",
"oo++@##@#################@+OOXXX",
"oo+o+#@@@#@########@##@+@@OX.XXX",
"oXXoX#o+@#@@##@###@+@@+OO@oX..XX",
".XoXoooo+@@@@#@@##@++@OOXXXXXX..",
"Xoo..oooXX+@+@@@#@++O@..XXX.XXX.",
"oooooooX..X+o+@@@++OOoX....XXX.X",
".ooo.oX..Xoooo+++OOoooXXX.X....X",
"XX..XX..ooXoooXXo+ooX.XXXX....XX",
"  X....XoooXoooXXoXXX.XXX.....  ",
"    X..XXoo.XooooXXX...X....    ",
"      X.XXX..XooXXX.......      ",
"        ......XXX.X..X..        ",
"          X......XXX.X          ",
"            .X.XXXXX            ",
"              XXXX              "
};
