/* XPM */
static char *ca34bba048904d99ecd916829da3f9b4ZtTlmju3c6MIVF3r[] = {
/* columns rows colors chars-per-pixel */
"32 32 13 1 ",
"  c None",
". c #151D28",
"X c #172038",
"o c #202E37",
"O c #253A5E",
"+ c #394A50",
"@ c #577277",
"# c #3C5E8B",
"$ c #4F8FBA",
"% c #73BED3",
"& c #819796",
"* c #A8B5B2",
"= c #A4DDDB",
/* pixels */
"                **&&@@          ",
"               ***&&&@          ",
"             o@**&&&&@          ",
"          *@ @**&&&&&@@         ",
"         *&@@+*&&&&&&&@@        ",
"        &*&@@+**&&&&&&@@        ",
"        **&@@@***&&&&&&@        ",
"        **&@@****&&&&&&@        ",
"       @*&&@+****&&&&&&&        ",
"       **&&++****&&&&&&o        ",
"      +**&&&+@***&&&&&++X       ",
"      +**&&&+&@@*&&&&@++X       ",
"      **&&&&+&@@@@@@@@+Xoo      ",
"     +**&&&&&+@@@@@@@@Xoo+X     ",
"    +***&&&&&+o@@@@@@@oo++o     ",
"    o**&&&&&&@+o@@@@ooo++++o    ",
"    o@*&&&&&&&@o+@@ooo+@+++o    ",
"    +@@@@&&@@&@oooooo++@+++o    ",
"   =+#@@@@@@@#++@@++++@@+++$#X  ",
"  X$%+@@@@@#++oo@@@++@@@++$#OX  ",
"XOX$$%#@###+@@ +@@@@@@@@@+$#OOXX",
"XOXO#%=++++@@@@%@@@@@@@@@%##OOX.",
"XXOO#$$=++@@@@%%=@@@@@@=%$##OXX.",
"XXXOO##%==%%==$$=%===%=%$##OXX..",
"XXOXOO###$##$$$X$$%%%$####OXX...",
"  OXXOXXOOO##XXOO#$$####OXXOX.  ",
"    XXOOXXOXXXX#OOOO####XOO.    ",
"      XXXOXOOOX#OXXXOOXXOO      ",
"        XXOOOOXXXXXXXXXO        ",
"          XXXXXXXXOOOO          ",
"            OXOOXOOO            ",
"              OO..              "
};
